Adwaita++/apps/symbolic/bleachbit-symbolic.svg

<svg height="16" width="16" xmlns="http://www.w3.org/2000/svg">
  <path d="m14.88463.00070034c-.6032-.019513-1.235029.2873232-1.51234.7413816l-1.740503 3.69583466c-.0557.091221-.09928.1848819-.13366.2790303l-1.482609-.7921144c-.180791.6717216-.0276927 1.0344122-.2655435 1.7591105l-.2765166-.1487836c-.200229-.1078072-.4545386-.043903-.5701352.142442l-.3045759.4926446c-.1156333.1868335-.047549.4243995.1526798.5323525l.036054.01951c-1.9342162.161954-4.3828826 3.7486655-7.7874806 5.3030395 2.7301 2.641666 6.7551047 4.028525 8.5693661 3.97345 2.2384939-2.133021 2.8842269-5.65451 2.6518839-7.4258165l.511963.276104c.200229.107807.454539.0439.570136-.142442l.304576-.492645c.115633-.186833.04755-.424399-.15268-.532206l-.251488-.135613c.507522-.477571 1.084214-.607964 1.595869-1.064949l-1.536229-.8206978c.06406-.071709.123523-.1497592.175827-.2351269l2.470409-3.2557764c.369734-.6054763.262304-1.69803616-.445395-2.03340906-.180478-.0853677-.378355-.1282955-.579436-.1346371zm-.095569.6981612a.54127762.50532877 0 0 1 .517972.37464216.54127762.50532877 0 0 1 -.382849.6187936.54127762.50532877 0 0 1 -.662788-.3570807.54127762.50532877 0 0 1 .38264-.61884256.54127762.50532877 0 0 1 .144999-.019513z" fill="#474747" fill-rule="evenodd"/>
</svg>

<svg xmlns="http://www.w3.org/2000/svg" width="16" height="16" version="1.1">
 <path style="fill:#444;fill-rule:evenodd" d="M 14.88463,7.0033949e-4 C 14.28143,-0.01881266 13.649601,0.28802354 13.37229,0.74208194 L 11.631787,4.4379166 c -0.0557,0.091221 -0.09928,0.1848819 -0.13366,0.2790303 L 10.015518,3.9248325 C 9.834727,4.5965541 9.9878253,4.9592447 9.7499745,5.683943 L 9.4734579,5.5351594 C 9.2732289,5.4273522 9.0189193,5.4912564 8.9033227,5.6776014 L 8.5987468,6.170246 C 8.4831135,6.3570795 8.5511978,6.5946455 8.7514266,6.7025985 l 0.036054,0.01951 C 6.8532644,6.8840625 4.404598,10.470774 1,12.025148 c 2.7301,2.641666 6.7551047,4.028525 8.5693661,3.97345 2.2384939,-2.133021 2.8842269,-5.65451 2.6518839,-7.4258165 l 0.511963,0.276104 c 0.200229,0.107807 0.454539,0.0439 0.570136,-0.142442 l 0.304576,-0.492645 c 0.115633,-0.186833 0.04755,-0.424399 -0.15268,-0.532206 l -0.251488,-0.135613 c 0.507522,-0.477571 1.084214,-0.607964 1.595869,-1.064949 L 13.263397,5.6603327 c 0.06406,-0.071709 0.123523,-0.1497592 0.175827,-0.2351269 L 15.909633,2.1694294 C 16.279367,1.5639531 16.171937,0.47139324 15.464238,0.13602034 15.28376,0.05065264 15.085883,0.00772484 14.884802,0.00138324 Z M 14.789061,0.69886154 a 0.54127762,0.50532877 0 0 1 0.517972,0.37464216 0.54127762,0.50532877 0 0 1 -0.382849,0.6187936 0.54127762,0.50532877 0 0 1 -0.662788,-0.3570807 0.54127762,0.50532877 0 0 1 0.38264,-0.61884256 0.54127762,0.50532877 0 0 1 0.144999,-0.019513 z"/>
</svg>
